packages/kaspersky-hexa-ui-icons/src/iconsSVGs/24/Folder.svg

<svg width="24" height="24" viewBox="0 0 24 24" fill="none" xmlns="http://www.w3.org/2000/svg">
<path fill-rule="evenodd" clip-rule="evenodd" d="M5.00116 5C4.47271 5 4 5.44716 4 6.05414V17.9459C4 18.5528 4.47271 19 5.00116 19H18.9988C19.5273 19 20 18.5528 20 17.9459V8.10041C20 7.49343 19.5273 7.04627 18.9988 7.04627H12.0177C11.7509 7.04627 11.4951 6.93964 11.3073 6.7501L9.93691 5.36695C9.70088 5.12872 9.38863 5 9.06885 5H5.00116ZM2 6.05414C2 4.39218 3.31919 3 5.00116 3H9.06885C9.93008 3 10.7516 3.34757 11.3576 3.95929L12.4346 5.04627H18.9988C20.6808 5.04627 22 6.43845 22 8.10041V17.9459C22 19.6078 20.6808 21 18.9988 21H5.00116C3.31919 21 2 19.6078 2 17.9459V6.05414Z" fill="black"/>
</svg>

<svg xmlns="http://www.w3.org/2000/svg" width="24" height="24" fill="none" viewBox="0 0 24 24"><path fill="#000" fill-rule="evenodd" d="M5.0012 5C4.4727 5 4 5.4472 4 6.0541V17.946C4 18.5528 4.4727 19 5.0012 19h13.9976C19.5273 19 20 18.5528 20 17.9459V8.1004c0-.607-.4727-1.0541-1.0012-1.0541h-6.9811a1 1 0 0 1-.7104-.2962L9.9369 5.367C9.701 5.1287 9.3886 5 9.069 5zM2 6.0541C2 4.3921 3.3192 3 5.0012 3h4.0677c.8612 0 1.6827.3476 2.2887.9593l1.077 1.087h6.5642C20.6808 5.0463 22 6.4385 22 8.1004v9.8455C22 19.6078 20.6808 21 18.9988 21H5.0012C3.3192 21 2 19.6078 2 17.9459z"/></svg>
